X: 69
T: Zhong nangua
%%abc-version 2.0
%%abcx-abcm2ps-target-version 5.9.1 (29 Sep 2008)
%%abc-creator hum2abc beta
%%abcx-conversion-date 2013/10/02 07:52:29
%%abc-edited-by Helmut Schaffrath
%%humdrum-veritas 643638064
%%humdrum-veritas-data 1517872271
%%continueall 1
%%barnumbers 0
L: 1/8
M: 2/4
K: G
d d/ e/ d A [I:setbarnb 1]| 
d ed2 | 
Bd2e | 
d BA2 | 
EG2A | 
d ed2 | 
d2E G | 
A B F E | 
D4 | 
B A B d | 
A GD2 | 
G> G E G | 
A GA2 | 
EG2A | 
d ed2 | 
d2E G | 
A B F E | 
D4 |]  



